Newaita-dark/apps/48/transmission.svg

<svg height="48" viewBox="0 0 48 48" width="48" xmlns="http://www.w3.org/2000/svg" xmlns:xlink="http://www.w3.org/1999/xlink"><linearGradient id="a" gradientTransform="matrix(0 .093759 -.093759 0 28.09448 47.012298)" gradientUnits="userSpaceOnUse" x1="-349.249969" x2="-433.916626" y1="87.979172" y2="87.979172"><stop offset="0" stop-color="#f44336"/><stop offset="1" stop-color="#ef5350"/></linearGradient><linearGradient id="b"><stop offset="0" stop-opacity=".313726"/><stop offset=".222222" stop-opacity=".27451"/><stop offset="1" stop-opacity="0"/></linearGradient><radialGradient id="c" cx="450.908936" cy="189.579361" gradientTransform="matrix(.00000017 -.117199 -.140638 -.00000015 50.476846 95.889135)" gradientUnits="userSpaceOnUse" r="21.166656" xlink:href="#b"/><radialGradient id="d" cx="450.908936" cy="189.579361" gradientTransform="matrix(-.00000017 .117199 .140638 .00000015 -2.847293 -10.795082)" gradientUnits="userSpaceOnUse" r="21.166656" xlink:href="#b"/><radialGradient id="e" cx="450.908936" cy="189.579361" gradientTransform="matrix(-.00000017 -.117199 .140638 -.00000015 -2.847293 95.889135)" gradientUnits="userSpaceOnUse" r="21.166656" xlink:href="#b"/><radialGradient id="f" cx="450.908936" cy="189.579361" gradientTransform="matrix(.00000017 .117199 -.140638 .00000015 50.476845 -10.795083)" gradientUnits="userSpaceOnUse" r="21.166656" xlink:href="#b"/><linearGradient id="g" gradientTransform="matrix(.0133601 0 0 .093759 20.403641 20.654316)" gradientUnits="userSpaceOnUse" x1="255.323059" x2="255.323044" y1="233.5" y2="254.666656"><stop offset="0" stop-opacity=".27451"/><stop offset="1" stop-opacity="0"/></linearGradient><linearGradient id="h" gradientUnits="userSpaceOnUse" x1="23.814786" x2="23.814786" y1="42.0509015" y2="6.3287225"><stop offset="0" stop-color="#bdbdbd"/><stop offset="1" stop-color="#e0e0e0"/></linearGradient><path d="m41.675781 11.289062c0 1.644532-1.332031 2.976563-2.976562 2.976563h-29.769531c-1.644532 0-2.976563-1.332031-2.976563-2.976563 0-1.644531 1.332031-2.976562 2.976563-2.976562h29.769531c1.644531 0 2.976562 1.332031 2.976562 2.976562zm0 0" fill="url(#a)"/><path d="m24.144531 42.546875h2.648438v-1.984375h-2.648438zm0 0" fill="url(#c)"/><path d="m23.484375 42.546875h-2.644531v1.984375h2.644531zm0 0" fill="url(#d)"/><path d="m23.484375 42.546875h-2.644531v-1.984375h2.644531zm0 0" fill="url(#e)"/><path d="m24.144531 42.546875h2.648438v1.984375h-2.648438zm0 0" fill="url(#f)"/><path d="m23.484375 42.050781h.660156v2.480469h-.660156zm0 0" fill="url(#g)"/><path d="m8.929688 8.3125c-1.648438 0-2.976563 1.328125-2.976563 2.976562 0 .132813.007813.261719.023437.386719.191407-1.464843 1.4375-2.589843 2.953126-2.589843h29.769531c1.519531 0 2.765625 1.125 2.953125 2.589843.015625-.125.023437-.253906.023437-.386719 0-1.648437-1.328125-2.976562-2.976562-2.976562zm0 0" fill="#fff" fill-opacity=".392157"/><path d="m8.929688 14.25c-1.648438 0-2.976563-1.328125-2.976563-2.976562 0-.132813.007813-.261719.023437-.386719.191407 1.464843 1.4375 2.589843 2.953126 2.589843h29.769531c1.519531 0 2.765625-1.125 2.953125-2.589843.015625.125.023437.253906.023437.386719 0 1.648437-1.328125 2.976562-2.976562 2.976562zm0 0" fill-opacity=".235294"/><path d="m-94.594831-444.499219c17.539991 0 31.746968 14.206977 31.746968 31.746968v317.511346c0 17.539992-14.206977 31.746968-31.746968 31.746968-17.539992 0-31.746969-14.206976-31.746969-31.746968v-317.511346c0-17.539991 14.206977-31.746968 31.746969-31.746968zm0 0" fill="none" stroke="#212121" stroke-linecap="square" stroke-linejoin="bevel" stroke-width="3" transform="matrix(0 .093759 -.093759 0 0 20.158175)"/><path d="m21.832031 6.359375c-1.101562 0-1.988281.886719-1.988281 1.984375v21.949219l-9.144531-3.917969c-.242188-.105469-.503907-.160156-.765625-.160156-1.839844-.007813-2.691406 2.277344-1.296875 3.472656l13.894531 11.910156c.738281.632813 1.828125.632813 2.570312 0l13.890626-11.910156c.738281-.632812.90625-1.714844.390624-2.539062-.515624-.828126-1.558593-1.15625-2.453124-.773438l-9.144532 3.917969v-21.949219c0-1.097656-.886718-1.984375-1.984375-1.984375zm0 0" fill="url(#h)"/><path d="m21.832031 6.359375c-1.101562 0-1.988281.886719-1.988281 1.984375v.714844c0-1.101563.886719-1.984375 1.988281-1.984375h3.96875c1.097657 0 1.984375.882812 1.984375 1.984375v-.714844c0-1.097656-.886718-1.984375-1.984375-1.984375zm15.871094 19.855469c-.257813 0-.523437.050781-.773437.160156l-9.144532 3.917969v.714843l9.144532-3.921874c.894531-.382813 1.9375-.054688 2.453124.773437.132813.214844.222657.449219.265626.6875.085937-.46875.003906-.96875-.265626-1.398437-.371093-.597657-1.011718-.933594-1.679687-.933594zm-27.769531 0c-1.347656-.003906-2.164063 1.222656-1.957032 2.347656.160157-.875.894532-1.636719 1.957032-1.632812.261718 0 .523437.054687.765625.15625l9.144531 3.921874v-.714843l-9.144531-3.917969c-.242188-.105469-.503907-.160156-.765625-.160156zm0 0" fill="#fff" fill-opacity=".784314"/><path d="m39.644531 27.816406c-.082031.421875-.304687.824219-.652343 1.121094l-13.890626 11.910156c-.742187.632813-1.832031.632813-2.570312 0l-13.894531-11.910156c-.367188-.3125-.578125-.703125-.65625-1.105469-.121094.640625.0625 1.347657.65625 1.855469l13.894531 11.910156c.738281.632813 1.828125.632813 2.570312 0l13.890626-11.910156c.550781-.472656.785156-1.191406.652343-1.871094zm0 0" fill-opacity=".235294"/><path d="m232.852764-147.173144c-11.748878 0-21.206309 9.45743-21.206309 21.164646v234.102644l-97.532352-41.787676c-2.583087-1.124893-5.374487-1.70817-8.165887-1.70817-19.623126-.083326-28.705592 24.289347-13.832013 37.038129l148.194182 127.029536c7.874248 6.749356 19.498138 6.749356 27.414049 0l148.152518-127.029536c7.874248-6.749355 9.665744-18.28992 4.166269-27.080747-5.499475-8.83249-16.623412-12.332156-26.164168-8.249212l-97.532353 41.787676v-234.102644c0-11.707216-9.45743-21.164646-21.164645-21.164646zm0 0" fill="none" stroke="#212121" stroke-linecap="round" stroke-linejoin="round" stroke-width="3" transform="matrix(.093759 0 0 .093759 0 20.158175)"/></svg>

<?xml version="1.0" encoding="UTF-8"?>
<svg xmlns="http://www.w3.org/2000/svg" xmlns:xlink="http://www.w3.org/1999/xlink" width="48px" height="48px" viewBox="0 0 48 48" version="1.1">
<defs>
<linearGradient id="linear0" gradientUnits="userSpaceOnUse" x1="-349.249969" y1="87.979172" x2="-433.916626" y2="87.979172" gradientTransform="matrix(0.000000000000000006,0.093759,-0.093759,0.000000000000000006,28.09448,47.012298)">
<stop offset="0" style="stop-color:rgb(95.686275%,26.274511%,21.176471%);stop-opacity:1;"/>
<stop offset="1" style="stop-color:rgb(93.725491%,32.549021%,31.37255%);stop-opacity:1;"/>
</linearGradient>
<radialGradient id="radial0" gradientUnits="userSpaceOnUse" cx="450.908936" cy="189.579361" fx="450.908936" fy="189.579361" r="21.166656" gradientTransform="matrix(0.00000017417,-0.117199,-0.140638,-0.000000152308,50.476846,95.889135)">
<stop offset="0" style="stop-color:rgb(0%,0%,0%);stop-opacity:0.313726;"/>
<stop offset="0.222222" style="stop-color:rgb(0%,0%,0%);stop-opacity:0.27451;"/>
<stop offset="1" style="stop-color:rgb(0%,0%,0%);stop-opacity:0;"/>
</radialGradient>
<radialGradient id="radial1" gradientUnits="userSpaceOnUse" cx="450.908936" cy="189.579361" fx="450.908936" fy="189.579361" r="21.166656" gradientTransform="matrix(-0.00000017417,0.117199,0.140638,0.000000152308,-2.847293,-10.795082)">
<stop offset="0" style="stop-color:rgb(0%,0%,0%);stop-opacity:0.313726;"/>
<stop offset="0.222222" style="stop-color:rgb(0%,0%,0%);stop-opacity:0.27451;"/>
<stop offset="1" style="stop-color:rgb(0%,0%,0%);stop-opacity:0;"/>
</radialGradient>
<radialGradient id="radial2" gradientUnits="userSpaceOnUse" cx="450.908936" cy="189.579361" fx="450.908936" fy="189.579361" r="21.166656" gradientTransform="matrix(-0.00000017417,-0.117199,0.140638,-0.000000152308,-2.847293,95.889135)">
<stop offset="0" style="stop-color:rgb(0%,0%,0%);stop-opacity:0.313726;"/>
<stop offset="0.222222" style="stop-color:rgb(0%,0%,0%);stop-opacity:0.27451;"/>
<stop offset="1" style="stop-color:rgb(0%,0%,0%);stop-opacity:0;"/>
</radialGradient>
<radialGradient id="radial3" gradientUnits="userSpaceOnUse" cx="450.908936" cy="189.579361" fx="450.908936" fy="189.579361" r="21.166656" gradientTransform="matrix(0.00000017417,0.117199,-0.140638,0.000000152308,50.476845,-10.795083)">
<stop offset="0" style="stop-color:rgb(0%,0%,0%);stop-opacity:0.313726;"/>
<stop offset="0.222222" style="stop-color:rgb(0%,0%,0%);stop-opacity:0.27451;"/>
<stop offset="1" style="stop-color:rgb(0%,0%,0%);stop-opacity:0;"/>
</radialGradient>
<linearGradient id="linear1" gradientUnits="userSpaceOnUse" x1="255.323059" y1="233.5" x2="255.323044" y2="254.666656" gradientTransform="matrix(0.0133601,0,0,0.093759,20.403641,20.654316)">
<stop offset="0" style="stop-color:rgb(0%,0%,0%);stop-opacity:0.27451;"/>
<stop offset="1" style="stop-color:rgb(0%,0%,0%);stop-opacity:0;"/>
</linearGradient>
<linearGradient id="linear2" gradientUnits="userSpaceOnUse" x1="254" y1="233.5" x2="254" y2="-147.5" gradientTransform="matrix(0.093759,0,0,0.093759,0,20.158175)">
<stop offset="0" style="stop-color:rgb(74.117649%,74.117649%,74.117649%);stop-opacity:1;"/>
<stop offset="1" style="stop-color:rgb(87.843138%,87.843138%,87.843138%);stop-opacity:1;"/>
</linearGradient>
</defs>
<g id="surface1">
<path style=" stroke:none;fill-rule:nonzero;fill:url(#linear0);" d="M 41.675781 11.289062 C 41.675781 12.933594 40.34375 14.265625 38.699219 14.265625 L 8.929688 14.265625 C 7.285156 14.265625 5.953125 12.933594 5.953125 11.289062 C 5.953125 9.644531 7.285156 8.3125 8.929688 8.3125 L 38.699219 8.3125 C 40.34375 8.3125 41.675781 9.644531 41.675781 11.289062 Z M 41.675781 11.289062 "/>
<path style=" stroke:none;fill-rule:nonzero;fill:url(#radial0);" d="M 24.144531 42.546875 L 26.792969 42.546875 L 26.792969 40.5625 L 24.144531 40.5625 Z M 24.144531 42.546875 "/>
<path style=" stroke:none;fill-rule:nonzero;fill:url(#radial1);" d="M 23.484375 42.546875 L 20.839844 42.546875 L 20.839844 44.53125 L 23.484375 44.53125 Z M 23.484375 42.546875 "/>
<path style=" stroke:none;fill-rule:nonzero;fill:url(#radial2);" d="M 23.484375 42.546875 L 20.839844 42.546875 L 20.839844 40.5625 L 23.484375 40.5625 Z M 23.484375 42.546875 "/>
<path style=" stroke:none;fill-rule:nonzero;fill:url(#radial3);" d="M 24.144531 42.546875 L 26.792969 42.546875 L 26.792969 44.53125 L 24.144531 44.53125 Z M 24.144531 42.546875 "/>
<path style=" stroke:none;fill-rule:nonzero;fill:url(#linear1);" d="M 23.484375 42.050781 L 24.144531 42.050781 L 24.144531 44.53125 L 23.484375 44.53125 Z M 23.484375 42.050781 "/>
<path style=" stroke:none;fill-rule:nonzero;fill:rgb(100%,100%,100%);fill-opacity:0.392157;" d="M 8.929688 8.3125 C 7.28125 8.3125 5.953125 9.640625 5.953125 11.289062 C 5.953125 11.421875 5.960938 11.550781 5.976562 11.675781 C 6.167969 10.210938 7.414062 9.085938 8.929688 9.085938 L 38.699219 9.085938 C 40.21875 9.085938 41.464844 10.210938 41.652344 11.675781 C 41.667969 11.550781 41.675781 11.421875 41.675781 11.289062 C 41.675781 9.640625 40.347656 8.3125 38.699219 8.3125 Z M 8.929688 8.3125 "/>
<path style=" stroke:none;fill-rule:nonzero;fill:rgb(0%,0%,0%);fill-opacity:0.235294;" d="M 8.929688 14.25 C 7.28125 14.25 5.953125 12.921875 5.953125 11.273438 C 5.953125 11.140625 5.960938 11.011719 5.976562 10.886719 C 6.167969 12.351562 7.414062 13.476562 8.929688 13.476562 L 38.699219 13.476562 C 40.21875 13.476562 41.464844 12.351562 41.652344 10.886719 C 41.667969 11.011719 41.675781 11.140625 41.675781 11.273438 C 41.675781 12.921875 40.347656 14.25 38.699219 14.25 Z M 8.929688 14.25 "/>
<path style="fill:none;stroke-width:3;stroke-linecap:square;stroke-linejoin:bevel;stroke:rgb(12.941177%,12.941177%,12.941177%);stroke-opacity:1;stroke-miterlimit:4;" d="M -94.594831 -444.499219 C -77.05484 -444.499219 -62.847863 -430.292242 -62.847863 -412.752251 L -62.847863 -95.240905 C -62.847863 -77.700913 -77.05484 -63.493937 -94.594831 -63.493937 C -112.134823 -63.493937 -126.3418 -77.700913 -126.3418 -95.240905 L -126.3418 -412.752251 C -126.3418 -430.292242 -112.134823 -444.499219 -94.594831 -444.499219 Z M -94.594831 -444.499219 " transform="matrix(0.000000000000000006,0.093759,-0.093759,0.000000000000000006,0,20.158175)"/>
<path style=" stroke:none;fill-rule:nonzero;fill:url(#linear2);" d="M 21.832031 6.359375 C 20.730469 6.359375 19.84375 7.246094 19.84375 8.34375 L 19.84375 30.292969 L 10.699219 26.375 C 10.457031 26.269531 10.195312 26.214844 9.933594 26.214844 C 8.09375 26.207031 7.242188 28.492188 8.636719 29.6875 L 22.53125 41.597656 C 23.269531 42.230469 24.359375 42.230469 25.101562 41.597656 L 38.992188 29.6875 C 39.730469 29.054688 39.898438 27.972656 39.382812 27.148438 C 38.867188 26.320312 37.824219 25.992188 36.929688 26.375 L 27.785156 30.292969 L 27.785156 8.34375 C 27.785156 7.246094 26.898438 6.359375 25.800781 6.359375 Z M 21.832031 6.359375 "/>
<path style=" stroke:none;fill-rule:nonzero;fill:rgb(100%,100%,100%);fill-opacity:0.784314;" d="M 21.832031 6.359375 C 20.730469 6.359375 19.84375 7.246094 19.84375 8.34375 L 19.84375 9.058594 C 19.84375 7.957031 20.730469 7.074219 21.832031 7.074219 L 25.800781 7.074219 C 26.898438 7.074219 27.785156 7.957031 27.785156 9.058594 L 27.785156 8.34375 C 27.785156 7.246094 26.898438 6.359375 25.800781 6.359375 Z M 37.703125 26.214844 C 37.445312 26.214844 37.179688 26.265625 36.929688 26.375 L 27.785156 30.292969 L 27.785156 31.007812 L 36.929688 27.085938 C 37.824219 26.703125 38.867188 27.03125 39.382812 27.859375 C 39.515625 28.074219 39.605469 28.308594 39.648438 28.546875 C 39.734375 28.078125 39.652344 27.578125 39.382812 27.148438 C 39.011719 26.550781 38.371094 26.214844 37.703125 26.214844 Z M 9.933594 26.214844 C 8.585938 26.210938 7.769531 27.4375 7.976562 28.5625 C 8.136719 27.6875 8.871094 26.925781 9.933594 26.929688 C 10.195312 26.929688 10.457031 26.984375 10.699219 27.085938 L 19.84375 31.007812 L 19.84375 30.292969 L 10.699219 26.375 C 10.457031 26.269531 10.195312 26.214844 9.933594 26.214844 Z M 9.933594 26.214844 "/>
<path style=" stroke:none;fill-rule:nonzero;fill:rgb(0%,0%,0%);fill-opacity:0.235294;" d="M 39.644531 27.816406 C 39.5625 28.238281 39.339844 28.640625 38.992188 28.9375 L 25.101562 40.847656 C 24.359375 41.480469 23.269531 41.480469 22.53125 40.847656 L 8.636719 28.9375 C 8.269531 28.625 8.058594 28.234375 7.980469 27.832031 C 7.859375 28.472656 8.042969 29.179688 8.636719 29.6875 L 22.53125 41.597656 C 23.269531 42.230469 24.359375 42.230469 25.101562 41.597656 L 38.992188 29.6875 C 39.542969 29.214844 39.777344 28.496094 39.644531 27.816406 Z M 39.644531 27.816406 "/>
<path style="fill:none;stroke-width:3;stroke-linecap:round;stroke-linejoin:round;stroke:rgb(12.941177%,12.941177%,12.941177%);stroke-opacity:1;stroke-miterlimit:4;" d="M 232.852764 -147.173144 C 221.103886 -147.173144 211.646455 -137.715714 211.646455 -126.008498 L 211.646455 108.094146 L 114.114103 66.30647 C 111.531016 65.181577 108.739616 64.5983 105.948216 64.5983 C 86.32509 64.514974 77.242624 88.887647 92.116203 101.636429 L 240.310385 228.665965 C 248.184633 235.415321 259.808523 235.415321 267.724434 228.665965 L 415.876952 101.636429 C 423.7512 94.887074 425.542696 83.346509 420.043221 74.555682 C 414.543746 65.723192 403.419809 62.223526 393.879053 66.30647 L 296.3467 108.094146 L 296.3467 -126.008498 C 296.3467 -137.715714 286.88927 -147.173144 275.182055 -147.173144 Z M 232.852764 -147.173144 " transform="matrix(0.093759,0,0,0.093759,0,20.158175)"/>
</g>
</svg>
